icons-rebrand/svg/bluetooth-container-muted-light.svg

<svg width="32" height="32" viewBox="0 0 32 32" fill="none" xmlns="http://www.w3.org/2000/svg">
<path d="M15.4998 17.621V24C15.4999 24.0884 15.5235 24.1752 15.5681 24.2515C15.6127 24.3278 15.6768 24.3909 15.7537 24.4344C15.8306 24.4779 15.9177 24.5002 16.0061 24.4991C16.0945 24.498 16.181 24.4735 16.2568 24.428L20.0378 22.16L19.3088 21.43L16.4998 23.117V18.62L15.4998 17.62V17.621ZM11.3538 21.353L15.2928 17.414L14.5858 16.707L10.6458 20.646C10.5994 20.6925 10.5626 20.7477 10.5375 20.8084C10.5124 20.8691 10.4995 20.9342 10.4995 20.9999C10.4996 21.0656 10.5125 21.1306 10.5377 21.1913C10.5629 21.252 10.5998 21.3071 10.6463 21.3535C10.6928 21.4 10.748 21.4368 10.8087 21.4619C10.8694 21.487 10.9344 21.4999 11.0001 21.4998C11.0658 21.4998 11.1309 21.4868 11.1916 21.4616C11.2522 21.4364 11.3074 21.3995 11.3538 21.353Z" fill="#0F0F0F"/>
<path d="M16.0002 28.5C10.2102 28.5 5.50019 22.892 5.50019 16C5.49019 13.657 6.06019 11.35 7.16019 9.281L6.42219 8.543C5.14884 10.8212 4.48671 13.3901 4.50019 16C4.50019 23.444 9.65919 29.5 16.0002 29.5C17.4768 29.477 18.9322 29.1455 20.2731 28.5267C21.614 27.908 22.8106 27.0156 23.7862 25.907L23.0812 25.202C22.1978 26.2168 21.1111 27.0346 19.8914 27.6026C18.6718 28.1706 17.3464 28.476 16.0012 28.499L16.0002 28.5ZM28.3542 27.646L25.0342 24.326C26.6616 21.8557 27.5198 18.9582 27.5002 16C27.5002 8.556 22.3412 2.5 16.0002 2.5C14.3547 2.53364 12.7387 2.94384 11.2764 3.69911C9.81401 4.45438 8.54413 5.53465 7.56419 6.857L4.35419 3.647C4.25989 3.55592 4.13359 3.50552 4.00249 3.50666C3.87139 3.5078 3.74599 3.56039 3.65328 3.65309C3.56058 3.74579 3.50799 3.8712 3.50685 4.0023C3.50572 4.1334 3.55611 4.2597 3.64719 4.354L27.6472 28.354C27.6933 28.4018 27.7485 28.4398 27.8095 28.4661C27.8705 28.4923 27.9361 28.506 28.0025 28.5066C28.0689 28.5072 28.1347 28.4946 28.1962 28.4694C28.2576 28.4443 28.3134 28.4071 28.3604 28.3602C28.4073 28.3133 28.4445 28.2574 28.4696 28.196C28.4947 28.1345 28.5074 28.0687 28.5068 28.0023C28.5062 27.9359 28.4924 27.8703 28.4662 27.8093C28.44 27.7483 28.4019 27.6931 28.3542 27.647V27.646ZM16.7072 15.999L21.3542 11.353C21.4078 11.2992 21.4485 11.2339 21.4732 11.1621C21.4978 11.0902 21.5057 11.0137 21.4964 10.9383C21.487 10.863 21.4606 10.7907 21.4192 10.7271C21.3777 10.6634 21.3223 10.61 21.2572 10.571L16.2572 7.571C16.1813 7.52553 16.0947 7.501 16.0063 7.49993C15.9178 7.49886 15.8306 7.52127 15.7537 7.56489C15.6767 7.60851 15.6127 7.67177 15.5682 7.74821C15.5236 7.82465 15.5002 7.91153 15.5002 8V14.793L8.27319 7.565C9.15956 6.33652 10.3185 5.33015 11.6592 4.62486C12.9999 3.91957 14.4857 3.53454 16.0002 3.5C21.7902 3.5 26.5002 9.107 26.5002 16C26.5177 18.6929 25.7583 21.3337 24.3132 23.606L16.7072 15.999ZM16.5002 14.792V8.882L20.1942 11.099L16.5002 14.793V14.792Z" fill="#0F0F0F"/>
</svg>

<svg width="32" height="32" viewBox="0 0 32 32" fill="none" xmlns="http://www.w3.org/2000/svg"><path d="M15.5 17.621V24a.5.5 0 0 0 .757.428l3.781-2.268-.729-.73-2.809 1.687V18.62l-1-1zM11.354 21.353l3.939-3.939-.707-.707-3.94 3.939a.5.5 0 1 0 .708.707z" fill="#0F0F0F"/><path d="M16 28.5c-5.79 0-10.5-5.608-10.5-12.5-.01-2.343.56-4.65 1.66-6.719l-.738-.738A15.124 15.124 0 0 0 4.5 16c0 7.444 5.159 13.5 11.5 13.5a10.591 10.591 0 0 0 7.786-3.593l-.705-.705a9.605 9.605 0 0 1-7.08 3.297zM28.354 27.646l-3.32-3.32A14.954 14.954 0 0 0 27.5 16c0-7.444-5.159-13.5-11.5-13.5a10.774 10.774 0 0 0-8.436 4.357l-3.21-3.21a.5.5 0 0 0-.707.707l24 24a.5.5 0 1 0 .707-.707zM16.707 15.999l4.647-4.646a.5.5 0 0 0-.097-.782l-5-3A.5.5 0 0 0 15.5 8v6.793L8.273 7.565A9.804 9.804 0 0 1 16 3.5c5.79 0 10.5 5.607 10.5 12.5a14.004 14.004 0 0 1-2.187 7.606l-7.606-7.607zm-.207-1.207v-5.91l3.694 2.217-3.694 3.694z" fill="#0F0F0F"/></svg>
